src/lib/packages/icons/src/assets/filled/microphone-stand.svg

<svg width="24" height="24" viewBox="0 0 24 24" fill="none" xmlns="http://www.w3.org/2000/svg">
<path d="M13.492 14.1818L9.81819 10.508C9.69519 10.385 9.49298 10.3919 9.37898 10.5239L3.55012 17.26C2.78012 18.15 2.81999 19.5 3.65999 20.34C4.09999 20.78 4.68008 21 5.26008 21C5.79008 21 6.32007 20.8199 6.74007 20.4499L13.4761 14.621C13.6081 14.507 13.615 14.3048 13.492 14.1818ZM10.4771 14.583L9.48396 15.5749C9.33796 15.7209 9.14518 15.7939 8.95418 15.7939C8.76218 15.7939 8.57015 15.7209 8.42415 15.5739C8.13115 15.2809 8.13115 14.8059 8.42415 14.5129L9.41707 13.5209C9.71107 13.2289 10.1861 13.2289 10.4781 13.5209C10.7701 13.8149 10.7701 14.29 10.4771 14.583ZM19.5731 10.5129L13.4871 4.42695C13.3581 4.29795 13.369 4.07697 13.515 3.96797C15.341 2.59997 17.616 2.63003 19.493 4.50703C21.37 6.38403 21.4001 8.65906 20.0321 10.4851C19.9231 10.6311 19.7021 10.6419 19.5731 10.5129ZM11.9261 5.43989C10.5991 6.76689 10.3771 7.94592 10.5501 9.04292C10.5601 9.10692 10.592 9.16684 10.638 9.21284L14.783 13.3579C14.829 13.4039 14.888 13.436 14.953 13.446C16.05 13.619 17.229 13.397 18.556 12.07C18.556 12.07 18.7881 11.8529 18.5631 11.6289C18.3751 11.4409 12.613 5.67907 12.377 5.44307C12.142 5.20707 11.9261 5.43989 11.9261 5.43989Z" fill="currentColor"/>
</svg>

<svg xmlns="http://www.w3.org/2000/svg" width="24" height="24" fill="none"><path fill="currentColor" d="m13.492 14.182-3.674-3.674a.3.3 0 0 0-.439.016L3.55 17.26c-.77.89-.73 2.24.11 3.08.44.44 1.02.66 1.6.66.53 0 1.06-.18 1.48-.55l6.736-5.829a.3.3 0 0 0 .016-.44Zm-3.015.401-.993.992a.748.748 0 0 1-1.06-.001.75.75 0 0 1 0-1.061l.993-.992a.752.752 0 0 1 1.061 0 .752.752 0 0 1 0 1.062Zm9.096-4.07-6.086-6.086a.307.307 0 0 1 .028-.459c1.826-1.368 4.101-1.338 5.978.539 1.877 1.877 1.907 4.152.54 5.978a.307.307 0 0 1-.46.028ZM11.926 5.44C10.6 6.767 10.377 7.946 10.55 9.043a.31.31 0 0 0 .088.17l4.145 4.145a.308.308 0 0 0 .17.088c1.097.173 2.276-.049 3.603-1.376 0 0 .232-.217.007-.441l-6.186-6.186c-.235-.236-.45-.003-.45-.003Z"/></svg>
